icons/headache_fill.svg

<svg width="48" height="48" viewBox="0 0 48 48" fill="none" xmlns="http://www.w3.org/2000/svg">
<path d="M13.3668 4.22607C13.7942 3.87635 14.4242 3.93935 14.774 4.36679L18.774 9.25568C19.0186 9.55473 19.0691 9.96798 18.9037 10.3171C18.7382 10.6663 18.3864 10.8889 18 10.8889H16.4128L17.7674 12.3101C18.1484 12.7099 18.1332 13.3429 17.7334 13.7239C17.3336 14.1049 16.7006 14.0897 16.3196 13.69L13.3544 10.5788C13.0784 10.2892 13.0015 9.86295 13.159 9.49517C13.3166 9.1274 13.6782 8.88892 14.0783 8.88892H15.8898L13.2261 5.63327C12.8763 5.20582 12.9393 4.5758 13.3668 4.22607Z" fill="black"/>
<path d="M24 23C26.2091 23 28 21.2092 28 19C28 16.7909 26.2091 15 24 15C21.7909 15 20 16.7909 20 19C20 21.2092 21.7909 23 24 23Z" fill="black"/>
<path fill-rule="evenodd" clip-rule="evenodd" d="M30 28.3487C30.3757 28.4267 30.7795 28.5095 31.1822 28.5892C31.9257 28.7365 32.7028 28.8812 33.3077 28.9671C33.5969 29.0082 33.9185 29.0466 34.1981 29.0539C34.3144 29.0569 34.5651 29.0603 34.841 29.003C34.9649 28.9773 35.2759 28.9049 35.602 28.6849C35.985 28.4265 36.5 27.8657 36.5 27C36.5 26.7734 36.4594 26.5824 36.4516 26.5456L36.4507 26.5414C36.4357 26.4689 36.4186 26.4005 36.4045 26.3467C36.3756 26.2366 36.3385 26.1095 36.2992 25.9795C36.2193 25.7155 36.1091 25.3713 35.9821 24.9839C35.727 24.2056 35.389 23.2065 35.0535 22.2256C34.7175 21.243 34.3817 20.2718 34.1301 19.5467C34.0043 19.1841 33.8994 18.8827 33.8259 18.6719L33.7102 18.3402C33.3457 17.2975 32.205 16.7477 31.1623 17.1122C30.1196 17.4767 29.5699 18.6177 29.9344 19.6604L29.9347 19.6614L30.0487 19.9881C30.1217 20.1975 30.226 20.4972 30.3512 20.858C30.6016 21.5799 30.9353 22.545 31.2687 23.5199C31.3932 23.8838 31.5172 24.2481 31.6367 24.601C31.0335 24.4794 30.442 24.3549 29.9593 24.2533L29.9291 24.2469C29.646 24.1873 29.3957 24.1347 29.2103 24.097C29.1187 24.0784 29.0319 24.0611 28.96 24.0479C28.9253 24.0415 28.8811 24.0337 28.8357 24.0268C28.8134 24.0234 28.7791 24.0184 28.7389 24.0138L28.7378 24.0137C28.7122 24.0108 28.6179 24 28.5 24C28.0228 24 27.653 24.1793 27.6222 24.1943L27.6203 24.1952C27.5132 24.2437 27.421 24.295 27.3699 24.3239C27.2927 24.3676 27.1924 24.4279 27.1098 24.4775L27.0432 24.5174C26.8278 24.646 26.5683 24.7963 26.2581 24.9437C25.6295 25.2425 24.8529 25.5 24 25.5C23.1468 25.5 22.3689 25.2424 21.7396 24.9435C21.4293 24.7961 21.1697 24.6459 20.9556 24.5178L20.8856 24.4758C20.8043 24.4269 20.7064 24.368 20.632 24.3258C20.5819 24.2973 20.4902 24.2461 20.3847 24.1978C20.3683 24.1896 19.9897 24 19.5 24C19.3772 24 19.2788 24.0117 19.2531 24.0148L19.2516 24.015C19.2106 24.0198 19.1758 24.0251 19.1533 24.0287C19.1076 24.0359 19.0633 24.0441 19.0287 24.0506C18.9571 24.0643 18.8703 24.082 18.7791 24.1012C18.6045 24.1378 18.371 24.1882 18.1071 24.2453L18.0621 24.2551C17.5859 24.358 16.9995 24.4847 16.3994 24.6083C16.5072 24.3047 16.6185 23.9927 16.7307 23.6795C17.0134 22.8906 17.3091 22.0729 17.5608 21.3771L17.5617 21.3745C17.8959 20.4507 18.1523 19.7419 18.1964 19.6021C18.5289 18.5488 17.9446 17.4253 16.8913 17.0928C15.838 16.7602 14.7145 17.3445 14.382 18.3979C14.3839 18.3919 14.3838 18.3921 14.3806 18.4013C14.3766 18.4129 14.3677 18.4389 14.3514 18.485C14.3269 18.5545 14.2933 18.6484 14.2513 18.7653C14.1675 18.9987 14.054 19.3124 13.9202 19.6823L13.8654 19.8337C13.6068 20.5483 13.2842 21.4397 12.9651 22.3306C12.6235 23.284 12.2824 24.2466 12.0257 24.9983C11.8979 25.3722 11.7864 25.7075 11.7052 25.9685C11.6652 26.0969 11.6267 26.2258 11.5964 26.3406C11.5815 26.3969 11.5634 26.4692 11.5476 26.5468L11.5468 26.551C11.5373 26.5975 11.5 26.7799 11.5 27C11.5 27.7596 11.9038 28.31 12.2889 28.6094C12.6124 28.8611 12.9326 28.9544 13.0736 28.9902C13.3725 29.066 13.6441 29.0674 13.7665 29.0664C14.0611 29.064 14.3945 29.026 14.6859 28.9856C15.2983 28.9009 16.0814 28.7536 16.8261 28.6035C17.226 28.5229 17.6267 28.4391 18 28.3597V32.2679C17.9017 32.3247 17.8078 32.3901 17.7196 32.4636L14.7196 34.9636C14.1659 35.425 13.9033 36.1487 14.0322 36.8578L15.0322 42.3578C15.2236 43.4104 16.2095 44.126 17.2696 43.9818C18.3297 43.8375 19.0886 42.8845 18.9917 41.819L18.5955 37.461L18.6707 37.4073C22.8823 36.601 25.2263 36.5959 29.3256 37.4048L29.4043 37.461L29.0081 41.819C28.9112 42.8845 29.6701 43.8375 30.7302 43.9818C31.7903 44.126 32.7762 43.4104 32.9676 42.3578L33.9676 36.8578C34.0965 36.1487 33.834 35.425 33.2802 34.9636L30.2802 32.4636C30.1921 32.3901 30.0983 32.3248 30 32.268V28.3487ZM34.3018 25.0552L34.2952 25.055C34.3121 25.0549 34.3154 25.0556 34.3018 25.0552Z" fill="black"/>
<path d="M33.226 4.36679C33.5758 3.93935 34.2058 3.87635 34.6332 4.22607C35.0607 4.5758 35.1237 5.20582 34.7739 5.63327L32.1102 8.88892H33.9217C34.3218 8.88892 34.6834 9.1274 34.841 9.49517C34.9985 9.86295 34.9216 10.2892 34.6456 10.5788L31.6804 13.69C31.2994 14.0897 30.6664 14.1049 30.2666 13.7239C29.8668 13.3429 29.8516 12.7099 30.2326 12.3101L31.5872 10.8889H30C29.6136 10.8889 29.2618 10.6663 29.0963 10.3171C28.9309 9.96798 28.9814 9.55473 29.226 9.25568L33.226 4.36679Z" fill="black"/>
<path d="M23.4874 4.21026C24.0173 3.99677 24.6046 4.22561 24.7992 4.72139L26.1671 8.20692C26.2982 8.54098 26.2202 8.92729 25.9646 9.20963C25.709 9.49197 25.3181 9.62364 24.95 9.55138L23.9998 9.36485L24.7478 11.1102C24.9576 11.5996 24.7028 12.181 24.1787 12.4087C23.6546 12.6364 23.0597 12.4242 22.85 11.9348L21.3499 8.43477C21.2066 8.1004 21.277 7.70694 21.532 7.41734C21.787 7.12775 22.1832 6.99134 22.5564 7.0646L23.5749 7.26452L22.8802 5.49451C22.6857 4.99873 22.9575 4.42375 23.4874 4.21026Z" fill="black"/>
</svg>

<svg
  xmlns="http://www.w3.org/2000/svg"
  width="24"
  height="24"
  viewBox="0 0 24 24"
  fill="none"
  stroke="currentColor"
  stroke-width="2"
  stroke-linecap="round"
  stroke-linejoin="round"
>
  <path d="M13.367 4.226a1 1 0 0 1 1.407.14l4 4.89A1 1 0 0 1 18 10.889h-1.587l1.354 1.421a1 1 0 0 1-1.447 1.38l-2.966-3.111a1 1 0 0 1 .724-1.69h1.812l-2.664-3.256a1 1 0 0 1 .14-1.407" />
  <path d="M24 23a4 4 0 1 0 0-8 4 4 0 0 0 0 8" />
  <path
    fill-rule="evenodd"
    d="M30 28.349c.376.078.78.16 1.182.24.744.148 1.52.292 2.126.378.289.041.61.08.89.087.116.003.367.006.643-.051.124-.026.435-.098.761-.318.383-.258.898-.82.898-1.685 0-.227-.04-.418-.048-.454l-.001-.005a4 4 0 0 0-.047-.194c-.028-.11-.066-.238-.105-.367-.08-.265-.19-.609-.317-.996-.255-.778-.593-1.778-.928-2.758a646 646 0 0 0-1.228-3.554l-.116-.332a2 2 0 1 0-3.776 1.32v.001l.115.327a657 657 0 0 1 1.588 4.613c-.604-.122-1.195-.246-1.678-.348l-.03-.006a119 119 0 0 0-.969-.2 4 4 0 0 0-.221-.033h-.001c-.026-.003-.12-.014-.238-.014-.477 0-.847.18-.878.194l-.002.001c-.107.049-.199.1-.25.129-.077.044-.178.104-.26.153l-.067.04a9 9 0 0 1-.785.427c-.628.299-1.405.556-2.258.556s-1.631-.258-2.26-.556a9 9 0 0 1-.784-.426l-.07-.042c-.082-.05-.18-.108-.254-.15a3 3 0 0 0-.247-.128C20.368 24.19 19.99 24 19.5 24c-.123 0-.221.012-.247.015h-.001a2 2 0 0 0-.223.036c-.072.013-.159.031-.25.05l-.672.144-.045.01c-.476.103-1.062.23-1.663.353l.332-.928c.282-.79.578-1.607.83-2.303v-.002c.335-.924.591-1.633.635-1.773a2 2 0 1 0-3.815-1.2l-.03.083-.1.28c-.083.234-.197.547-.33.917l-.056.152c-.258.714-.58 1.606-.9 2.497-.341.953-.683 1.916-.94 2.667-.127.374-.239.71-.32.97-.04.129-.078.258-.109.373a4 4 0 0 0-.048.206l-.001.004c-.01.047-.047.229-.047.449 0 .76.404 1.31.789 1.61.323.251.644.344.785.38.299.076.57.077.693.076.294-.002.628-.04.919-.08a38 38 0 0 0 2.14-.383c.4-.08.8-.164 1.174-.243v3.908a2 2 0 0 0-.28.196l-3 2.5a2 2 0 0 0-.688 1.894l1 5.5a2 2 0 0 0 3.96-.539l-.396-4.358.075-.054c4.211-.806 6.555-.811 10.655-.002l.078.056-.396 4.358a2 2 0 0 0 3.96.539l1-5.5a2 2 0 0 0-.688-1.894l-3-2.5a2 2 0 0 0-.28-.196zm4.302-3.294h-.007z"
    clip-rule="evenodd"
  />
  <path d="M33.226 4.367a1 1 0 0 1 1.548 1.266L32.11 8.89h1.812a1 1 0 0 1 .724 1.69L31.68 13.69a1 1 0 0 1-1.447-1.38l1.354-1.421H30a1 1 0 0 1-.774-1.633z" />
  <path d="M23.487 4.21c.53-.213 1.118.016 1.312.511l1.368 3.486a.97.97 0 0 1-.202 1.003 1.1 1.1 0 0 1-1.015.341L24 9.365l.748 1.745c.21.49-.045 1.071-.57 1.299-.523.227-1.118.015-1.328-.474l-1.5-3.5a.97.97 0 0 1 .182-1.018c.255-.29.651-.426 1.024-.352l1.019.2-.695-1.77c-.194-.496.078-1.071.607-1.285" />
</svg>
